X: 3
T: A Trumpet Tune
C: Henry Purcell
P: piffero primo a0457
F: http://ancients.sudburymuster.org/mus/ssp/pdf/involuntaryF.pdf
Z: 2019 John Chambers <jc:trillian.mit.edu>
M: 4/4
L: 1/8
K: D
z4 |\
a2a2 a3g | f>ed>f e2A2 | F2A2 d2A2 | d>ef>g e4 |\
a2a2 a3g | f>ed>f e2A2 | d>ed>e f>^gf>g | ^g3f/g/ a2 :|
|: z2 |\
e2e2 e3f | e>dc>d e2A2 | a2a2 a3b | a>gf>g a2d2 |\
a>gf>a g>fe>g | f>ed>f e2A2 | d>fe>g f>ag>f | e3d d2 :|

%%center (8 bar drum bridge)


